X: 342
T: The Bride is a bonny thing
R: jig
B: Robert Bremner "A Collection of Scots Reels or Country Dances" 1757 p.34 #2
S: http://imslp.org/wiki/A_Collection_of_Scots_Reels_or_Country_Dances_(Bremner,_Robert)
Z: 2013 John Chambers <jc:trillian.mit.edu>
M: 6/8
L: 1/8
K: Amix
% - - - - - - - - - - - - - - - - - - - - - - - - -
V: 1
|:\
eAA ecc | fBB Baf | eAA ecc | eAA ecc |\
fdd ecc | fBB Baf | eAA ecc | eAA Aaf :|
|:\
e2e (f/e/f/g/a) | g2B Bcd | e2e (f/e/f/g/a) | ece aeg |\
fdf ece | f2B Bcd | e2e (f/e/f/g/a) | Te2A Acd :|
% - - - - - - - - - - - - - - - - - - - - - - - - -
V: 2 clef=bass middle=d
|:\
a3 a3 | b3 b3 | a3 a3 | a3 a3 |\
d'3 c'3 b3 b3 | a3 a3 | a3 a3 :|
|:\
a3 a3 | b3 b3 | a3 a3 | a3 a3 |\
d'3 c'3 | b3 b3 | a3 a3 | a3 a3 :|
% - - - - - - - - - - - - - - - - - - - - - - - - -

%%sep 1 1 500
%%sep 1 1 500
